X:885
T:Sligo Creek
R:reel
C:Danny Noveck
Z:id:hn-reel-885
M:C|
L:1/8
K:Bdor
f2ef dB~B2 | f2ef defg | a2ed cA~A2 | EFAB cBce |
f2ef dB~B2 | f2ef defg | a2ed cA~A2 |1 ~B3A Bcde :|2 ~B3A BcBA ||
|: FB~B2 Bcde | f2ef defd | eA~A2 cBAF | EFAB BcBA |
GB~B2 Bcde | f2ef defd | ea~a2 f2ec | ABBA B3A :|

